src/assets/x-light.svg

<svg fill="none" height="24" viewBox="0 0 24 24" width="24" xmlns="http://www.w3.org/2000/svg"><rect fill="#181818" height="24" rx="12" width="24"/><path d="m13.4113 10.845 5.5737-6.345h-1.3206l-4.8419 5.5081-3.86438-5.5081h-4.45812l5.845 8.33-5.845 6.6531h1.32062l5.10998-5.8181 4.0819 5.8181h4.4581zm-1.8094 2.0581-.5932-.83-4.71182-6.5981h2.02874l3.80378 5.3269.5906.83 4.9438 6.9237h-2.0288z" fill="#fff"/></svg>

<svg width="24" height="24" viewBox="0 0 24 24" fill="none" xmlns="http://www.w3.org/2000/svg">
    <rect width="24" height="24" rx="12" fill="#181818" />
    <path
        d="M13.4113 10.845L18.985 4.5H17.6644L12.8225 10.0081L8.95812 4.5H4.5L10.345 12.83L4.5 19.4831H5.82062L10.9306 13.665L15.0125 19.4831H19.4706L13.4113 10.845ZM11.6019 12.9031L11.0087 12.0731L6.29688 5.475H8.32562L12.1294 10.8019L12.72 11.6319L17.6638 18.5556H15.635L11.6019 12.9031Z"
        fill="white" />
</svg>
